!!!!SEGMENT: pl-kk--kk-i-277--001-006_anonim--rorate-caeli-ave-maria.krn
!!!cenid: 16xx:1078
!!!COM: Anonim
!!!COM-rismid: pe30004985
!!!CDT:
!!!CNT:
!!!OPR: Rorate caeli
!!!OTL: Ave Maria
!!!OMV: 006
!!!PDT:
!!!AGN: Sacred
!!!SMS-siglum: PL-Kk
!!!SMS-shelfmark: Kk.I.277
!!!SMS-shelfwork: 001-006 M
!!!SMS-variant:
!!!SMS-altvar:
!!!NIFC-rismid: 1001147186
!!!URL-scan: http://repozytorium.nifc.pl/skany/pl-kk-nut--i-277
!!!ONB-nifc: UWAGA: Rorate 1mi officii od str. 1. Części: 1. Rorate caeli (Rorate caeli + Benedixisti + Gloria patri), 2. Kyrie, 3. Tollite portas, 4. Alleluia, 5. Mittit ad virginem, 6. Ave Maria, 7. Sanctus, 8. Agnus Dei, 9. Ecce virgo, 10. Deo gratias
**kern	**text
*Itenor	*
*I"[Tenore]	*
*I'[T]	*
*clefC4	*
*k[]	*
*G:mix	*
*M2/1	*
*met(C)	*
=1-	=1-
*lig	*
1F	A-
1G	.
*Xlig	*
=2-	=2-
1A	.
1G	.
=3-	=3-
*lig	*
1A	.
1F	.
*Xlig	*
=4-	=4-
*lig	*
1G	.
1F	.
*Xlig	*
=5-	=5-
*lig	*
1E	.
1D	.
*Xlig	*
=6-	=6-
0F	.
=7-	=7-
*lig	*
1G	.
1A	.
*Xlig	*
=8-	=8-
*lig	*
1G	.
1F	.
*Xlig	*
=9-	=9-
*lig	*
1G	.
1A	.
*Xlig	*
=10-	=10-
!LO:TX:a:t=P:problem:rozdzielacz słów:global	!
1G,<	-ue
1G	Ma-
=11-	=11-
1A	.
*lig	*
1c	-ri-
=12-	=12-
1B	.
*Xlig	*
*lig	*
1c	.
=13-	=13-
1A	.
*Xlig	*
!LO:LB:g=original	!
*lig	*
1G	.
=14-	=14-
1F	.
*Xlig	*
*lig	*
1G	.
=15-	=15-
1A	.
*Xlig	*
1c	.
=16-	=16-
*lig	*
1A	.
1F	.
*Xlig	*
=17-	=17-
1G	.
1G,<	-a
=18-	=18-
*lig	*
1G	gra-
1D	.
*Xlig	*
=19-	=19-
*lig	*
1F	.
1E	.
*Xlig	*
=20-	=20-
1F	.
0D	.
=21-	=21-
.	.
1E	.
=22-	=22-
1F	.
*lig	*
1G	-ti-
=23-	=23-
1F	.
*Xlig	*
!LO:TX:t=P:problem:1G poprawione na 0G	!
!LO:TX:a:t=2	!
0G	-a
=24-	=24-
.	.
*lig	*
1G	ple-
=25-	=25-
1A	.
*Xlig	*
1G	.
=26-	=26-
1G	-na
!LO:LB:g=original	!
*lig	*
1A	Do-
=27-	=27-
1c	.
*Xlig	*
*lig	*
1B	.
=28-	=28-
1A	.
*Xlig	*
1d	.
=29-	=29-
0c	.
=30-	=30-
*lig	*
1A	.
1c	.
*Xlig	*
=31-	=31-
0G	.
=32-	=32-
*lig	*
1A	.
1c	.
*Xlig	*
=33-	=33-
*lig	*
1B	.
1A	.
*Xlig	*
=34-	=34-
1d	.
0c	.
=35-	=35-
.	.
1A	.
=36-	=36-
*lig	*
1c	.
(1G	.
*Xlig	*
=37-	=37-
1G)	.
1A	.
=38-	=38-
*lig	*
1c	.
1G	.
*Xlig	*
=39-	=39-
*lig	*
1F	-mi-
1G	.
*Xlig	*
=40-	=40-
!LO:SIC:v:t=custos G	!
1G,<	-nus
!LO:LB:g=original	!
*lig	*
1G	te-
=41-	=41-
1E	.
*Xlig	*
*lig	*
1D	.
=42-	=42-
1E	.
*Xlig	*
0G	.
=43-	=43-
.	.
*lig	*
1A	.
=44-	=44-
1G	.
*Xlig	*
*lig	*
1F	.
=45-	=45-
1G	.
*Xlig	*
*lig	*
1A	.
=46-	=46-
1G	.
*Xlig	*
1G,<	-cum
=47-	=47-
1c	be-
*lig	*
1c	-ne-
=48-	=48-
1d	.
*Xlig	*
*lig	*
1e	.
=49-	=49-
1d	.
*Xlig	*
1c	-di-
=50-	=50-
1d	.
1c,<	-cta
=51-	=51-
*lig	*
1c	tu
1B	.
*Xlig	*
=52-	=52-
*lig	*
1c	.
1d	.
*Xlig	*
=53-	=53-
*lig	*
1A	.
1G	.
*Xlig	*
!LO:LB:g=original	!
=54-	=54-
1A	in
1G	Mu-
=55-	=55-
*lig	*
1c	.
1B	.
*Xlig	*
=56-	=56-
1A	-li-
1d	-e-
=57-	=57-
*lig	*
1c	.
1B	.
*Xlig	*
=58-	=58-
*lig	*
1A	.
1c	.
*Xlig	*
=59-	=59-
1B	.
*lig	*
1A	-ri-
=60-	=60-
1c	.
*Xlig	*
1c	-b(us)
=61-	=61-
!LO:TX:t=P:problem:nad 1G zaczerniona 1c (?)	!
1G	et
*lig	*
1B	be-
=62-	=62-
1c	.
*Xlig	*
*lig	*
1d	-ne-
=63-	=63-
1c	.
*Xlig	*
1A	-dic-
=64-	=64-
*lig	*
1c	.
1A	.
*Xlig	*
=65-	=65-
*lig	*
1c	.
1G	.
*Xlig	*
=66-	=66-
1A	-tus
!LO:PB:g=original	!
*lig	*
1B	.
=67-	=67-
1c	.
*Xlig	*
1A,<	.
=68-	=68-
*lig	*
1G	fru-
1F	.
*Xlig	*
=69-	=69-
*lig	*
1G	.
1A	.
*Xlig	*
=70-	=70-
*lig	*
1F	.
1E	.
*Xlig	*
=71-	=71-
*lig	*
1F	-ct(us)
1D,<	.
*Xlig	*
=72-	=72-
*lig	*
1D	uen-
1E	.
*Xlig	*
=73-	=73-
*lig	*
1F	.
1G	.
*Xlig	*
=74-	=74-
*lig	*
1A	.
1F	.
*Xlig	*
=75-	=75-
1E	.
0D	.
=76-	=76-
.	.
*lig	*
1E	.
=77-	=77-
1F	.
*Xlig	*
*lig	*
1G	.
=78-	=78-
1F	.
*Xlig	*
*lig	*
1A	.
=79-	=79-
1F	.
*Xlig	*
1G	-tris
=80-	=80-
1G	tu-
!LO:LB:g=original	!
0A	.
=81-	=81-
.	.
1G	.
=82-	=82-
0Gl;;	-i
==	==
*-	*-
!!!RDF**kern: < = below
!!!RDF**kern: l = terminal long
!!!ENC: Marta Lawrence
!!!END: 2021-03-28
!!!ENC: Katarzyna Serwa
!!!END: 2021-03-15
